!!!OTL: Der Bauer ins Holz
!!!ARE: Europa, Mitteleuropa, Deutschland
!!!SCT: A0472E
!!!YEM: Copyright 1995, estate of Helmut Schaffrath.
**kern
*ICvox
*Ivox
*M4/2
*k[]
*C:
{2G
=1
2G
1r
2A
=2
2A
1r
2c
=3
1c}
{1c
=4
2B
1g
2f
=5
1e
1d
=6
2e
4d
4c
2B}
{2G
=7
2G
1r
2G
=8
2.G
4A
2B
2c
=9
2d
2c
2c
2B
=10
1.c}
==
!!!AGN: Romanze, Ballade, Lied
!! Baseler Tenor 1560 fol. 80.
!!!ONB: ESAC (Essen Associative Code) Database: ALTDEU
!!!AMT: simple quadruple
!!!AIN: vox
!!!EED: Helmut Schaffrath
!!!EEV: 1.0
*-
